build/images/icons/city.svg

<svg width="24" height="24" viewBox="0 0 24 24" fill="none" xmlns="http://www.w3.org/2000/svg">
<path d="M21 7H15C14.7348 7 14.4804 7.10536 14.2929 7.29289C14.1054 7.48043 14 7.73478 14 8V11H12V4C12 3.73478 11.8946 3.48043 11.7071 3.29289C11.5196 3.10536 11.2652 3 11 3H3C2.73478 3 2.48043 3.10536 2.29289 3.29289C2.10536 3.48043 2 3.73478 2 4V20C2 20.2652 2.10536 20.5196 2.29289 20.7071C2.48043 20.8946 2.73478 21 3 21H21C21.2652 21 21.5196 20.8946 21.7071 20.7071C21.8946 20.5196 22 20.2652 22 20V8C22 7.73478 21.8946 7.48043 21.7071 7.29289C21.5196 7.10536 21.2652 7 21 7ZM8 6H10V8H8V6ZM6 16H4V14H6V16ZM6 12H4V10H6V12ZM6 8H4V6H6V8ZM10 16H8V14H10V16ZM10 12H8V10H10V12ZM19 16H17V14H19V16ZM19 12H17V10H19V12Z"/>
</svg>

<svg width="24" height="24" fill="none" xmlns="http://www.w3.org/2000/svg"><path d="M21 7h-6a1 1 0 00-1 1v3h-2V4a1 1 0 00-1-1H3a1 1 0 00-1 1v16a1 1 0 001 1h18a1 1 0 001-1V8a1 1 0 00-1-1zM8 6h2v2H8V6zM6 16H4v-2h2v2zm0-4H4v-2h2v2zm0-4H4V6h2v2zm4 8H8v-2h2v2zm0-4H8v-2h2v2zm9 4h-2v-2h2v2zm0-4h-2v-2h2v2z"/></svg>
